client/src/assets/img/game/tree_oak_1.svg

<?xml version="1.0" encoding="UTF-8" standalone="no"?>
<svg
   width="550"
   height="609.87701"
   viewBox="0 0 550 609.87701"
   fill="none"
   version="1.1"
   id="svg52"
   sodipodi:docname="tree_oak_1.svg"
   inkscape:version="1.1.2 (0a00cf5339, 2022-02-04)"
   xmlns:inkscape="http://www.inkscape.org/namespaces/inkscape"
   xmlns:sodipodi="http://sodipodi.sourceforge.net/DTD/sodipodi-0.dtd"
   xmlns="http://www.w3.org/2000/svg"
   xmlns:svg="http://www.w3.org/2000/svg">
  <defs
     id="defs56" />
  <sodipodi:namedview
     id="namedview54"
     pagecolor="#505050"
     bordercolor="#ffffff"
     borderopacity="1"
     inkscape:pageshadow="0"
     inkscape:pageopacity="0"
     inkscape:pagecheckerboard="1"
     showgrid="false"
     inkscape:zoom="1.5334507"
     inkscape:cx="151.94489"
     inkscape:cy="273.89208"
     inkscape:window-width="2560"
     inkscape:window-height="1372"
     inkscape:window-x="0"
     inkscape:window-y="0"
     inkscape:window-maximized="1"
     inkscape:current-layer="svg52"
     height="609.877px" />
  <g
     id="g898"
     transform="matrix(2.1509582,0,0,2.1509582,-2.3019163,2.8099607e-4)">
    <path
       d="m 144.763,60.6442 -30.621,56.2698 c 0,0 -11.052,9.289 -17.895,15.509 -13.8148,12.556 -33.8017,33.802 -33.8017,33.802 L 64.036,199.43 72,172 112.353,150.318 127.663,186.307 92,211 86.703,247.945 101.5,220.5 c 0,0 18.866,-10.241 27.555,-15.9 9.24,-6.018 14.515,-11.93 14.515,-11.93 l 9.941,13.918 -6.362,36.784 L 168.5,203 134.224,149.921 174.985,123.277 182.143,93.4516 166.5,113.5 133.429,126.259 153.511,73 179,58.5 Z"
       fill="#5b3e24"
       id="path2" />
    <path
       d="M 114.153,116.715 116.937,97.2291 107.194,64.024 127.873,34 l -6.164,35.3925 15.509,27.8366 -3.579,29.0289 42.153,8.55 27.24,-14.316 32.41,11.731 -32.41,3.977 -27.24,19.486 -40.761,-5.369 c 6.623,16.999 10.14,43.346 10.14,43.346 l -13.123,26.843 -5.766,24.456 -7.556,-30.024 7.556,-26.445 c 0,0 -5.562,-24.56 -13.72,-38.176 l -22.0701,7.954 C 77.9481,159.024 60.5,154 60.5,154 l -23,10 18.5,-21.921 h 25.1469 l 15.1113,-9.856 -11.7312,-15.508 -7.5159,-19.4859 -22.5,-16.5305 32.5,9.5 c 0,0 14.9999,23.5004 27.1419,26.5164 z"
       fill="#6d4a2c"
       stroke="#1b1917"
       stroke-width="6"
       stroke-miterlimit="16"
       stroke-linejoin="round"
       id="path4" />
    <path
       opacity="0.95"
       d="m 60.6559,207.185 c 32.3948,0 58.6561,-26.172 58.6561,-58.457 0,-32.285 -26.2613,-58.4574 -58.6561,-58.4574 C 28.2612,90.2706 2,116.443 2,148.728 c 0,32.285 26.2612,58.457 58.6559,58.457 z"
       fill="#3a4f3f"
       id="path6" />
    <path
       opacity="0.95"
       d="m 126.694,123.307 c 34.166,0 61.863,-27.6035 61.863,-61.6537 0,-34.0502 -27.697,-61.653544141 -61.863,-61.653544141 -34.1659,0 -61.8629,27.603344141 -61.8629,61.653544141 0,34.0502 27.697,61.6537 61.8629,61.6537 z"
       fill="#3a4f3f"
       id="path8" />
    <path
       opacity="0.95"
       d="m 132.236,283.537 c 32.395,0 58.656,-26.172 58.656,-58.457 0,-32.285 -26.261,-58.457 -58.656,-58.457 -32.3948,0 -58.6559,26.172 -58.6559,58.457 0,32.285 26.2611,58.457 58.6559,58.457 z"
       fill="#3a4f3f"
       id="path10" />
    <path
       opacity="0.95"
       d="m 199.044,191.278 c 32.395,0 58.656,-26.172 58.656,-58.457 0,-32.285 -26.261,-58.4574 -58.656,-58.4574 -32.395,0 -58.656,26.1724 -58.656,58.4574 0,32.285 26.261,58.457 58.656,58.457 z"
       fill="#3a4f3f"
       id="path12" />
    <path
       opacity="0.85"
       d="m 73.3813,128.446 c 22.292,0 40.3627,-17.982 40.3627,-40.1642 0,-22.1822 -18.0707,-40.1644 -40.3627,-40.1644 -22.292,0 -40.3632,17.9822 -40.3632,40.1644 0,22.1822 18.0712,40.1642 40.3632,40.1642 z"
       fill="#485e52"
       id="path14" />
    <path
       opacity="0.85"
       d="m 129.452,276.378 c 22.292,0 40.363,-17.982 40.363,-40.164 0,-22.182 -18.071,-40.165 -40.363,-40.165 -22.292,0 -40.3633,17.983 -40.3633,40.165 0,22.182 18.0713,40.164 40.3633,40.164 z"
       fill="#485e52"
       id="path16" />
    <path
       opacity="0.85"
       d="m 204.214,174.973 c 22.292,0 40.363,-17.982 40.363,-40.164 0,-22.182 -18.071,-40.1646 -40.363,-40.1646 -22.292,0 -40.363,17.9826 -40.363,40.1646 0,22.182 18.071,40.164 40.363,40.164 z"
       fill="#485e52"
       id="path18" />
    <path
       opacity="0.85"
       d="m 136.611,67.1411 c 15.044,0 27.24,-12.107 27.24,-27.0415 0,-14.9346 -12.196,-27.0415 -27.24,-27.0415 -15.045,0 -27.241,12.1069 -27.241,27.0415 0,14.9345 12.196,27.0415 27.241,27.0415 z"
       fill="#485e52"
       id="path20" />
    <path
       opacity="0.85"
       d="m 42.3632,210.763 c 22.292,0 40.3632,-17.982 40.3632,-40.164 0,-22.183 -18.0712,-40.165 -40.3632,-40.165 C 20.0713,130.434 2,148.416 2,170.599 c 0,22.182 18.0713,40.164 40.3632,40.164 z"
       fill="#485e52"
       id="path22" />
    <path
       d="m 7.0216,201.228 c 7.7133,1.372 24.398,-2.236 19.4945,-11.477 -5.7,-8.773 -16.95278,4.063 -19.49716,11.473 l -0.0038,0.002 c 0.00136,0 0.0054,0.001 0.00646,0.002 z"
       fill="#77a37a"
       id="path24" />
    <path
       d="m 19.1414,218.24 0.002,-0.007 c 8.3817,-5.825 20.4352,-24.479 7.3729,-28.482 -13.3638,-2.84 -11.8796,19.319 -7.3788,28.48 l -0.002,0.007 c 7e-4,-0.001 0.0027,-0.002 0.0033,-0.003 5e-4,0.002 0.0014,0.003 0.0026,0.005 z"
       fill="#5f926a"
       id="path26" />
    <path
       d="m 150.76,230.247 c -1.824,7.619 -11.8,21.471 -18.312,13.283 -5.763,-8.731 10.501,-13.916 18.309,-13.287 l 0.004,-0.003 c 0,0.002 -0.001,0.006 -0.001,0.007 z"
       fill="#5f926a"
       id="path28" />
    <path
       d="m 142.973,271.011 -0.003,-0.006 c -8.982,-4.848 -23.052,-22.031 -10.522,-27.475 12.961,-4.322 13.973,17.865 10.528,27.472 l 0.003,0.007 c -0.001,-0.001 -0.003,-0.002 -0.004,-0.002 0,0.002 -0.001,0.003 -0.002,0.004 z"
       fill="#587e60"
       id="path30" />
    <path
       d="m 121.016,257.625 0.003,-0.004 c -0.314,-6.4 4.384,-19.327 11.429,-14.091 6.578,5.811 -5.099,13.079 -11.426,14.094 0,0 -0.004,0 -0.006,10e-4 z"
       fill="#77a37a"
       id="path32" />
    <path
       d="m 100.547,17.5083 -10e-4,0.0037 c -6.4616,4.4296 -15.8285,18.7007 -5.8523,21.8522 10.2153,2.2587 9.2383,-14.7837 5.8573,-21.8508 -0.001,-0.0013 -0.003,-0.0032 -0.004,-0.0051 z"
       fill="#5f926a"
       id="path34" />
    <path
       d="m 79.977,13.881 0.0035,0.0064 C 78.0879,23.9171 82.5726,45.6688 94.6934,39.3648 106.213,32.0199 89.6178,17.2603 79.9858,13.8844 L 79.9822,13.878 c 10e-5,0.0011 -2e-4,0.0036 -4e-4,0.0043 -0.0019,-0.0012 -0.003,-0.0012 -0.0048,-0.0013 z"
       fill="#587e60"
       id="path36" />
    <path
       d="m 77.1641,44.064 0.0038,-0.0012 c 5.7169,2.8942 19.4366,3.8684 17.525,-4.6979 -2.6276,-8.3745 -14.022,-0.6704 -17.526,4.694 -4e-4,6e-4 -0.0015,0.0037 -0.0028,0.0051 z"
       fill="#77a37a"
       id="path38" />
    <path
       d="m 104.52,127.723 c 3.569,6.975 5,23.985 -5.2725,22 -10.0566,-2.885 -1.0735,-17.4 5.2675,-22.001 l 0.001,-0.003 c 10e-4,0.001 0.003,0.004 0.004,0.004 z"
       fill="#5f926a"
       id="path40" />
    <path
       d="m 112.416,162.211 -0.003,-0.003 c -6.405,-0.181 -18.9298,-5.866 -13.1656,-12.484 6.3026,-6.109 12.6456,6.095 13.1686,12.481 0,10e-4 0,0.004 0,0.006 z"
       fill="#77a37a"
       id="path42" />
    <path
       d="m 124.333,134.338 -0.008,0.003 c -3.118,9.719 -17.43,26.702 -25.0792,15.383 -6.6249,-11.949 14.9992,-17.012 25.0762,-15.388 l 0.007,-0.004 c 0,0.001 -10e-4,0.004 -10e-4,0.004 0.002,0 0.004,10e-4 0.005,0.002 z"
       fill="#587e60"
       id="path44" />
    <path
       d="m 251.3,139.535 c -4.43,-6.462 -18.701,-15.829 -21.852,-5.853 -2.259,10.215 14.783,9.239 21.851,5.858 l 0.003,0.001 c 0,-0.002 -0.002,-0.005 -0.002,-0.006 z"
       fill="#5f926a"
       id="path46" />
    <path
       d="m 244.159,108.195 -0.004,0.007 c -9.632,3.375 -26.228,18.135 -14.708,25.48 12.121,6.304 16.605,-15.448 14.713,-25.477 l 0.004,-0.007 c -10e-4,0.001 -0.003,0.002 -0.004,0.002 0,-0.002 -0.001,-0.003 -0.001,-0.005 z"
       fill="#587e60"
       id="path48" />
    <path
       d="m 224.748,116.153 0.001,0.004 c -2.894,5.716 -3.868,19.436 4.698,17.525 8.375,-2.628 0.671,-14.023 -4.694,-17.527 l -10e-4,-0.003 c 10e-4,-0.001 0,0 0,0 -0.001,-0.001 -0.003,0.002 -0.004,0.001 z"
       fill="#77a37a"
       id="path50" />
  </g>
</svg>

<svg width="265" height="284" viewBox="0 0 265 284" fill="none" xmlns="http://www.w3.org/2000/svg">
<path d="M144.763 60.6442L114.142 116.914C114.142 116.914 103.09 126.203 96.247 132.423C82.4322 144.979 62.4453 166.225 62.4453 166.225L64.036 199.43L72 172L112.353 150.318L127.663 186.307L92 211L86.703 247.945L101.5 220.5C101.5 220.5 120.366 210.259 129.055 204.6C138.295 198.582 143.57 192.67 143.57 192.67L153.511 206.588L147.149 243.372L168.5 203L134.224 149.921L174.985 123.277L182.143 93.4516L166.5 113.5L133.429 126.259L153.511 73L179 58.5L144.763 60.6442Z" fill="#5B3E24"/>
<path d="M114.153 116.715L116.937 97.2291L107.194 64.024L127.873 34L121.709 69.3925L137.218 97.2291L133.639 126.258L175.792 134.808L203.032 120.492L235.442 132.223L203.032 136.2L175.792 155.686L135.031 150.317C141.654 167.316 145.171 193.663 145.171 193.663L132.048 220.506L126.282 244.962L118.726 214.938L126.282 188.493C126.282 188.493 120.72 163.933 112.562 150.317L90.4919 158.271C77.9481 159.024 60.5 154 60.5 154L37.5 164L56 142.079H81.1469L96.2582 132.223L84.527 116.715L77.0111 97.2291L54.5111 80.6986L87.0111 90.1986C87.0111 90.1986 102.011 113.699 114.153 116.715Z" fill="#6D4A2C" stroke="#1B1917" stroke-width="6" stroke-miterlimit="16" stroke-linejoin="round"/>
<path opacity="0.95" d="M60.6559 207.185C93.0507 207.185 119.312 181.013 119.312 148.728C119.312 116.443 93.0507 90.2706 60.6559 90.2706C28.2612 90.2706 2 116.443 2 148.728C2 181.013 28.2612 207.185 60.6559 207.185Z" fill="#3A4F3F"/>
<path opacity="0.95" d="M126.694 123.307C160.86 123.307 188.557 95.7035 188.557 61.6533C188.557 27.6031 160.86 -0.000244141 126.694 -0.000244141C92.5281 -0.000244141 64.8311 27.6031 64.8311 61.6533C64.8311 95.7035 92.5281 123.307 126.694 123.307Z" fill="#3A4F3F"/>
<path opacity="0.95" d="M132.236 283.537C164.631 283.537 190.892 257.365 190.892 225.08C190.892 192.795 164.631 166.623 132.236 166.623C99.8412 166.623 73.5801 192.795 73.5801 225.08C73.5801 257.365 99.8412 283.537 132.236 283.537Z" fill="#3A4F3F"/>
<path opacity="0.95" d="M199.044 191.278C231.439 191.278 257.7 165.106 257.7 132.821C257.7 100.536 231.439 74.3636 199.044 74.3636C166.649 74.3636 140.388 100.536 140.388 132.821C140.388 165.106 166.649 191.278 199.044 191.278Z" fill="#3A4F3F"/>
<path opacity="0.85" d="M73.3813 128.446C95.6733 128.446 113.744 110.464 113.744 88.2818C113.744 66.0996 95.6733 48.1174 73.3813 48.1174C51.0893 48.1174 33.0181 66.0996 33.0181 88.2818C33.0181 110.464 51.0893 128.446 73.3813 128.446Z" fill="#485E52"/>
<path opacity="0.85" d="M129.452 276.378C151.744 276.378 169.815 258.396 169.815 236.214C169.815 214.032 151.744 196.049 129.452 196.049C107.16 196.049 89.0887 214.032 89.0887 236.214C89.0887 258.396 107.16 276.378 129.452 276.378Z" fill="#485E52"/>
<path opacity="0.85" d="M204.214 174.973C226.506 174.973 244.577 156.991 244.577 134.809C244.577 112.627 226.506 94.6444 204.214 94.6444C181.922 94.6444 163.851 112.627 163.851 134.809C163.851 156.991 181.922 174.973 204.214 174.973Z" fill="#485E52"/>
<path opacity="0.85" d="M136.611 67.1411C151.655 67.1411 163.851 55.0341 163.851 40.0996C163.851 25.165 151.655 13.0581 136.611 13.0581C121.566 13.0581 109.37 25.165 109.37 40.0996C109.37 55.0341 121.566 67.1411 136.611 67.1411Z" fill="#485E52"/>
<path opacity="0.85" d="M42.3632 210.763C64.6552 210.763 82.7264 192.781 82.7264 170.599C82.7264 148.416 64.6552 130.434 42.3632 130.434C20.0713 130.434 2 148.416 2 170.599C2 192.781 20.0713 210.763 42.3632 210.763Z" fill="#485E52"/>
<path d="M7.0216 201.228C14.7349 202.6 31.4196 198.992 26.5161 189.751C20.8161 180.978 9.56332 193.814 7.01894 201.224L7.01514 201.226C7.0165 201.226 7.02054 201.227 7.0216 201.228Z" fill="#77A37A"/>
<path d="M19.1414 218.24L19.1434 218.233C27.5251 212.408 39.5786 193.754 26.5163 189.751C13.1525 186.911 14.6367 209.07 19.1375 218.231L19.1355 218.238C19.1362 218.237 19.1382 218.236 19.1388 218.235C19.1393 218.237 19.1402 218.238 19.1414 218.24Z" fill="#5F926A"/>
<path d="M150.76 230.247C148.936 237.866 138.96 251.718 132.448 243.53C126.685 234.799 142.949 229.614 150.757 230.243L150.761 230.24C150.761 230.242 150.76 230.246 150.76 230.247Z" fill="#5F926A"/>
<path d="M142.973 271.011L142.97 271.005C133.988 266.157 119.918 248.974 132.448 243.53C145.409 239.208 146.421 261.395 142.976 271.002L142.979 271.009C142.978 271.008 142.976 271.007 142.975 271.007C142.975 271.009 142.974 271.01 142.973 271.011Z" fill="#587E60"/>
<path d="M121.016 257.625L121.019 257.621C120.705 251.221 125.403 238.294 132.448 243.53C139.026 249.341 127.349 256.609 121.022 257.624C121.022 257.624 121.018 257.624 121.016 257.625Z" fill="#77A37A"/>
<path d="M100.547 17.5083L100.546 17.512C94.0844 21.9416 84.7175 36.2127 94.6937 39.3642C104.909 41.6229 103.932 24.5805 100.551 17.5134C100.55 17.5121 100.548 17.5102 100.547 17.5083Z" fill="#5F926A"/>
<path d="M79.977 13.881L79.9805 13.8874C78.0879 23.9171 82.5726 45.6688 94.6934 39.3648C106.213 32.0199 89.6178 17.2603 79.9858 13.8844L79.9822 13.878C79.9823 13.8791 79.982 13.8816 79.9818 13.8823C79.9799 13.8811 79.9788 13.8811 79.977 13.881Z" fill="#587E60"/>
<path d="M77.1641 44.064L77.1679 44.0628C82.8848 46.957 96.6045 47.9312 94.6929 39.3649C92.0653 30.9904 80.6709 38.6945 77.1669 44.0589C77.1665 44.0595 77.1654 44.0626 77.1641 44.064Z" fill="#77A37A"/>
<path d="M104.52 127.723C108.089 134.698 109.52 151.708 99.2475 149.723C89.1909 146.838 98.174 132.323 104.515 127.722L104.516 127.719C104.517 127.72 104.519 127.723 104.52 127.723Z" fill="#5F926A"/>
<path d="M112.416 162.211L112.413 162.208C106.008 162.027 93.4832 156.342 99.2474 149.724C105.55 143.615 111.893 155.819 112.416 162.205C112.416 162.206 112.416 162.209 112.416 162.211Z" fill="#77A37A"/>
<path d="M124.333 134.338L124.325 134.341C121.207 144.06 106.895 161.043 99.2458 149.724C92.6209 137.775 114.245 132.712 124.322 134.336L124.329 134.332C124.329 134.333 124.328 134.336 124.328 134.336C124.33 134.336 124.332 134.337 124.333 134.338Z" fill="#587E60"/>
<path d="M251.3 139.535C246.87 133.073 232.599 123.706 229.448 133.682C227.189 143.897 244.231 142.921 251.299 139.54L251.302 139.541C251.302 139.539 251.3 139.536 251.3 139.535Z" fill="#5F926A"/>
<path d="M244.159 108.195L244.155 108.202C234.523 111.577 217.927 126.337 229.447 133.682C241.568 139.986 246.052 118.234 244.16 108.205L244.164 108.198C244.163 108.199 244.161 108.2 244.16 108.2C244.16 108.198 244.159 108.197 244.159 108.195Z" fill="#587E60"/>
<path d="M224.748 116.153L224.749 116.157C221.855 121.873 220.881 135.593 229.447 133.682C237.822 131.054 230.118 119.659 224.753 116.155L224.752 116.152C224.753 116.151 224.752 116.152 224.752 116.152C224.751 116.151 224.749 116.154 224.748 116.153Z" fill="#77A37A"/>
</svg>
